!!!COM: Fanny (Mendelssohn) Hensel
!!!CNT: Deutsch
!!!TXO: Deutsch
!!!OTL: "Das Veilchen"
!!!LYR: Unknown poet
!!!OPR: 
!!!OPS: Op. 
!!!ONM: No. 
!!!ENC: Emily Thomas
!!!YOR: Hensel: 16 Songs Fanny Mendelssohn Hensel
!!!YOR: Alfred, 1995
!!!ODT: 1846/
!!NB: Vocal melody and text encoded.
**kern	**silbe
=1	=1
*clefG2	*
*k[f#]	*
*M6/8	*
*MM[Allegretto]	*
4r	.
8r	.
4r	.
{8dd	{Ach
=2	=2
4a	Veil-
8a	-chen,
8cc	ar-
8b	|
8a	-mes
=3	=3
4.dd	Veil-
4g}	-chen,}
{8g	{wie
=4	=4
4cc	blu2hst
8cc	du
4b	aus
8b	dem
=5	=5
4.ee}	Schnee?}
4r	.
{8ee	{Im
=6	=6
4a	kur-
8a	-zen
8cc	Son-
8b	|
8a	-nen-
=7	=7
4.dd	-weil-
4g}	-chen,}
{8dd	{dann
=8	=8
4cc#	lan-
8cc#	-gem
4ccn	Win-
8ccn	-ter-
=9	=9
[2.b-	-weh,
=10	=10
8b-]	|
8a	|
8b-	|
8bn	|
8cc}	|}
{8cc#	{dann
=11	=11
4dd	lan-
8g	-gem
4b-	Win-
8a	-ter-
=12	=12
4.g}	-weh.}
4r	.
{8g	{Zu-
=13	=13
4dd	-ru2ck
8dd	nicht
4ee-	in
8cc	die
=14	=14
4.cc	Er-
4b-}	-de}
8r	.
=15	=15
{8dd	{kannst
8cc	|
8b-	du,
8ee-	warm
8dd	|
8cc	zu
=16	=16
4.ffn}	ruh'n,}
4r	.
{8b-	{sie
=17	=17
4b-	sprach
8b-	ihr
8bn	ta2u-
8dd#	|
8b	-schend
=18	=18
4.b	"wer-
4a#}	-de"}
{8f#	{und
=19	=19
4g	schliesst
8g	sich
8b	ei-
8a	|
8g	-sig
=20	=20
4.f#}	nun,}
4r	.
{8f#	{sie
=21	=21
4dd	sprach
8dd	ihr
4dd	ta2u-
8dd	-schend
=22	=22
8dd	"wer-
8dd#	|
8ff#	|
8ee	|
8cc	-de"
8b	und
=23	=23
4.a}	schliesst}
4r	.
{8a	{sich
=24	=24
[4.cc	ei-
4cc]	|
8b	-sig
=25	=25
4.g}	nun.}
4r	.
8r	.
=26	=26
4r	.
8r	.
4r	.
8r	.
=27	=27
4r	.
8r	.
4r	.
{8dd	{Auch
=28	=28
4a	mei-
8a	-ner
8cc	See-
8b	|
8a	-le
=29	=29
4.dd	Blu2-
4g	-te
8g	rief
=30	=30
4cc	fal-
8cc	-scher
4b	Fru2h-
8b	-ling
=31	=31
4.ee}	wach,}
4r	.
{8ee	{nun
=32	=32
4a	zieht
8a	durch
8cc	mein
8b	|
8a	Ge-
=33	=33
4.dd	-mu2-
4g}	-te}
{8dd	{der
=34	=34
4cc#	kal-
8cc#	-te
4ccn	Win-
8ccn	-ter
=35	=35
[2.b-	nach,
=36	=36
8b-]	|
8a	|
8b-	|
8bn	|
8cc}	|}
{8cc#	{der
=37	=37
4dd	kal-
8b-	-te
4a	Win-
8b-	-ter
=38	=38
4.g}	nach.}
4r	.
{8g	{Der
=39	=39
4dd	Lie-
8dd	-be
4ee-	letzt
8cc	Er-
=40	=40
4.cc	-bar-
4b-}	-men,}
{8b-	{galt
=41	=41
8dd	Veil-
8cc	|
8b-	-chen
8ee-	dei-
8dd	|
8cc	-ner
=42	=42
4.ffn}	Not,}
4r	.
{8b-	{du
=43	=43
4b-	sollst
8b-	bei
8bn	mir
8dd#	|
8b	er-
=44	=44
4.b	-war-
4a#}	-men,}
{8f#	{er-
=45	=45
4g	war-
8g	-men,
8b	ach,
8a	|
8g	zum
=46	=46
4.f#}	Tod,}
4r	.
{8f#	{du
=47	=47
4dd	sollst
8dd	bei
4dd	mir
8dd	er-
=48	=48
[2.dd	-war-
=49	=49
8dd]	|
8dd#	|
8ff#	|
8ee	|
8cc}	-men,}
{8b	{er-
=50	=50
[4.a	-war-
4a]	|
8a	-men,
=51	=51
4.b-}	ach,}
4r	.
{8f#	{zum
=52	=52
4.g}	Tod,}
4r	.
{8cc	{do
=53	=53
4dd	sollst
8dd#	bei
4ee	mir
8cc	er-
=54	=54
8cc	-war-
8b}	-men,}
8r	.
4r	.
{8cc	{er-
=55	=55
4dd	-war-
8dd#	|
4ee	|
8ddn	-men,
=56	=56
4.cc	ach,
4r	.
8f#	zum
=57	=57
4.g}	Tod!}
4r	.
8r	.
==	==
*-	*-
